X: 4550
T: Boston Life
R: jig
M: 6/8
K: Gmajor
B,/A,/|:G,B,D GBd|b3 bfa|gfg Bcd|c3 cBc|DFA d^cd|
fef a2g|1 fef ABc|ed^c dBG:|2 fed bfa|g3 g2F||
|:GBd gdB|Ace a2g|f/g/af ABc|ed^c dBG|GBd gdB|
Ace a2g|1 fed bfa|g3 g2F:|2 f/g/af def|g3 g2||

